X: 1
T: Washington Square Park
M: 6/8
L: 1/8
R: jig
K: Emaj
|: c B/G/F/E/ |\
FGE B, (3B,CE | FEE B, (3B,CE | AGB GFE | FF/E/F cB/G/F/E/ | 
FGE B, (3B,CE | FEE B, (3B,CE | cBB GFE | E3  :|
bb/c/e |\ 
gef eb/c/e/f/ | bef eb/c/e/f/ | =gee =ddB | A=dB ab/c/e/f/ | 
gef eb/c/e/f/ | bef eb/c/e/f/ | =gee =ddB | A4 b/c/e/f/ :| 
gef eb/c/e/f/ |bef eb/=c/e/f/ |=gee =ddB | c3 |]



